ww_PresentWeather/WeatherSymbol_WMO_PresentWeather_ww_11.svg

<?xml version="1.0" encoding="UTF-8" standalone="no"?>
<!DOCTYPE svg PUBLIC "-//W3C//DTD SVG 1.1//EN" "http://www.w3.org/Graphics/SVG/1.1/DTD/svg11.dtd">
<svg xmlns="http://www.w3.org/2000/svg" version="1.1" width="55" height="55" viewBox="-27.5 -27.5 55 55">
<desc id="en">
	Codes 10-19 General Group: No precipitation at the station at the time of observation or, except 17, during the preceeding hour.
	Code: 11
	Description: Patches of shallow fog at station, NOT deeper than 6 feet on land
</desc>
<g id="ww_11" fill="none" stroke-width="3" stroke="#000000" >
	<path d="M -17.5,-9.5 h 14.5 M 17.5,-9.5 h -14.5 M -17.5,0 h 14.5 M 17.5,0 h -14.5 M -17.5,9.5 h 14.5 M 17.5,9.5 h -14.5" />
</g>
</svg>

<?xml version="1.0" encoding="UTF-8" standalone="no"?>
<!-- Created with Inkscape (http://www.inkscape.org/) -->

<svg
   xmlns:dc="http://purl.org/dc/elements/1.1/"
   xmlns:cc="http://creativecommons.org/ns#"
   xmlns:rdf="http://www.w3.org/1999/02/22-rdf-syntax-ns#"
   xmlns:svg="http://www.w3.org/2000/svg"
   xmlns="http://www.w3.org/2000/svg"
   xmlns:inkscape="http://www.inkscape.org/namespaces/inkscape"
   version="1.1"
   width="55"
   height="55"
   viewBox="-27.5 -27.5 55 55"
   id="svg2">
  <desc
     id="en">
	Codes 10-19 General Group: No precipitation at the station at the time of observation or, except 17, during the preceeding hour.
	Code: 11
	Description: Patches of shallow fog at station, NOT deeper than 6 feet on land
</desc>
  <metadata
     id="metadata12">
    <rdf:RDF>
      <cc:Work
         rdf:about="">
        <dc:format>image/svg+xml</dc:format>
        <dc:type
           rdf:resource="http://purl.org/dc/dcmitype/StillImage" />
      </cc:Work>
    </rdf:RDF>
  </metadata>
  <defs
     id="defs10" />
  <g
     id="ww_11"
     style="fill:none;stroke:#000000;stroke-width:3">
    <path
       d="M -17.5,-9.5 H -3 m 20.5,0 H 3 M -17.5,0 H -3 M 17.5,0 H 3 M -17.5,9.5 H -3 m 20.5,0 H 3"
       inkscape:connector-curvature="0"
       id="path6" />
  </g>
</svg>
